!!!!SEGMENT: Ver3013-Donna_ligiadra_e_bella.krn
!!!id: Ver3013
!!!AGN: Madrigal
!!!SCT: Slim (1972)
!!!voices: 4
!!!COM: Philippe Verdelot
!!!OTL: Donna ligiadra e bella
**kern	**kern	**kern	**kern
*part4	*part3	*part2	*part1
*staff4	*staff3	*staff2	*staff1
*I"Bassus	*I"Tenor III	*I"Tenor II	*I"Tenor I
*I'B	*I'T. III	*I'T. II	*I'T. I
*clefF4	*clefGv2	*clefGv2	*clefG2
*k[]	*k[]	*k[]	*k[]
*C:	*C:	*C:	*C:
*M2/1	*M2/1	*M2/1	*M2/1
*met(C|)	*met(C|)	*met(C|)	*met(C|)
=1	=1	=1	=1
0C	0c	0e	0g
=2	=2	=2	=2
1G	1B	1d	1g
1D	2.d	1f	1a
.	4c	.	.
=3	=3	=3	=3
2E	2B	2e	2g
2C	1c	2e	2g
1G	.	1d	1g
.	2B	.	.
=4	=4	=4	=4
1C	1c	1c	1e
2r	2r	2r	2r
2GG	2B	2d	2g
=5	=5	=5	=5
2C	2c	2e	2g
2D	2A	2d	2f
2E	2G	2B	2e
2C	2G	2c	2e
=6	=6	=6	=6
2GG	2G	2B	2d
2GG	2D	2G	2B
2C	2E	2A	2c
2BB	2D	[2G	2d
=7	=7	=7	=7
1AA	1C	2G]	2e
.	.	2F#i	4d
.	.	.	4c
1GG	2D	1G	1B
.	2D	.	.
=8	=8	=8	=8
2r	1.G	2r	2r
2GG	.	2B	2d
[1C	.	[1c	[1e
.	2G	.	.
=9	=9	=9	=9
2C]	2A	2c]	2e]
2C	2G	2c	2e
2D	2F	2B	2f
2C	[2G	2c	2e
=10	=10	=10	=10
1D	2G]	1A	1d
.	2F#i	.	.
1GG	1G	1B	1d
=11	=11	=11	=11
2r	2r	2r	2r
2GG	2D	2G	2B
2C	2E	2G	2c
2GG	2D	2G	2B
=12	=12	=12	=12
2C	2E	2G	2c
2AA	2E	2A	2c
[1GG	[1G	[1B	[1d
=13	=13	=13	=13
2GG]	2G]	2B]	2d]
2GG	2G	2B	2d
2C	2G	2c	2e
2E	2G	2c	[2g
=14	=14	=14	=14
1D	1A	1d	4g]
.	.	.	8f#iL
.	.	.	8eJ
.	.	.	2f#i
1E	1G	1B	1g
=15	=15	=15	=15
1C	1G	1c	1e
1BB-X	1B-X	1d	1f
=16	=16	=16	=16
1BB-i	1B-i	1d	1f
2C	2G	2c	2e
2C	2G	2c	2e
=17	=17	=17	=17
2r	2r	2r	2r
1FF	1F	1A	1c
2FF	2F	2A	2c
=18	=18	=18	=18
2F	2F	2A	2d
2E	2G	2B	2e
1D	1A	1d	1f
=19	=19	=19	=19
1AA	1A	1c	1e
2r	2r	2r	2r
2AA	2A	2c	2e
=20	=20	=20	=20
2D	2A	2d	2f
2C	2c	2e	2g
1F	1c	1f	1a
=21	=21	=21	=21
2.C	2c	2e	[0g
.	1c	1e	.
4D	.	.	.
4E	.	.	.
4F	.	.	.
2G	2B	2d	.
=22	=22	=22	=22
2C	2c	2e	0g]
2G	2B	2d	.
1C	1c	1e	.
=23	=23	=23	=23
2r	[0G	2d	2r
1C	.	1c	1e
2GG	.	2B	2d
=24	=24	=24	=24
2C	0G]	2c	2e
2GG	.	2B	2d
1C	.	1c	1e
=25	=25	=25	=25
2.GG	2r	2B	[0d
.	1G	1B	.
4AA	.	.	.
4BB	.	.	.
4C	.	.	.
2D	2F	2A	.
=26	=26	=26	=26
2GG	2G	2B	0d]
2D	2F#i	2A	.
1GG	1G	1B	.
=27	=27	=27	=27
2r	2C	[0G	2r
1C	1E	.	1c
2GG	2D	.	2B
=28	=28	=28	=28
2C	2E	0G_	2c
2GG	2D	.	2B
1C	1E	.	[1c
=29	=29	=29	=29
0GG	0D	0G]	2c]
.	.	.	4B
.	.	.	4A
.	.	.	1B
=30	=30	=30	=30
2.FF	2r	2r	[0cl
.	1F	1A	.
4GG	.	.	.
4AA	.	.	.
4BB	.	.	.
2C	2E	2G	.
=31	=31	=31	=31
2FF	2F	2A	0c_
2C	2E	2G	.
4FF	1F	1A	.
4GG	.	.	.
4AA	.	.	.
4BB	.	.	.
=32	=32	=32	=32
00Cl	00El	00Gl	00c]
==	==	==	==
*-	*-	*-	*-
!!!system-decoration: [*]
!!!RDF**kern: i = editorial accidental
!!!RDF**kern: l = terminal long
!!!ENC: Benjamin Ory
!!!END: 2021/2/1
!!!EED: Benjamin Ory
!!!EEV: 2021/04/29
!!!YEC: Copyright 2021 Benjamin Ory, All Rights Reserved
!!!ONB: Translated from MusicXML on 2021/04/29
